Numix-GalliumOS/24/emblems/cs-xlet-update.svg

<?xml version="1.0" encoding="UTF-8" standalone="no"?>
<svg
   xmlns:dc="http://purl.org/dc/elements/1.1/"
   xmlns:cc="http://creativecommons.org/ns#"
   xmlns:rdf="http://www.w3.org/1999/02/22-rdf-syntax-ns#"
   xmlns:svg="http://www.w3.org/2000/svg"
   xmlns="http://www.w3.org/2000/svg"
   xmlns:sodipodi="http://sodipodi.sourceforge.net/DTD/sodipodi-0.dtd"
   xmlns:inkscape="http://www.inkscape.org/namespaces/inkscape"
   width="24"
   height="24"
   viewBox="0 0 24 24"
   id="svg2"
   version="1.1"
   inkscape:version="0.48.5 r10040"
   sodipodi:docname="cs-xlet-update.svg">
  <metadata
     id="metadata12">
    <rdf:RDF>
      <cc:Work
         rdf:about="">
        <dc:format>image/svg+xml</dc:format>
        <dc:type
           rdf:resource="http://purl.org/dc/dcmitype/StillImage" />
      </cc:Work>
    </rdf:RDF>
  </metadata>
  <defs
     id="defs10" />
  <sodipodi:namedview
     pagecolor="#ffffff"
     bordercolor="#666666"
     borderopacity="1"
     objecttolerance="10"
     gridtolerance="10"
     guidetolerance="10"
     inkscape:pageopacity="0"
     inkscape:pageshadow="2"
     inkscape:window-width="640"
     inkscape:window-height="480"
     id="namedview8"
     showgrid="false"
     inkscape:zoom="9.8333333"
     inkscape:cx="12"
     inkscape:cy="12"
     inkscape:window-x="0"
     inkscape:window-y="0"
     inkscape:window-maximized="0"
     inkscape:current-layer="svg2" />
  <path
     inkscape:connector-curvature="0"
     style="fill:#ffffff;stroke:#777777;stroke-width:0.3958616"
     d="m 21.799615,12.00135 c 0,5.414028 -4.386746,9.800719 -9.800842,9.800719 -5.4140962,0 -9.8008422,-4.386691 -9.8008422,-9.800719 0,-5.4140282 4.386746,-9.8007192 9.8008422,-9.8007192 5.414096,0 9.800842,4.386691 9.800842,9.8007192 z"
     id="path2991" />
  <path
     style="fill:#dc322f;fill-opacity:1"
     d="M 12.058594 5 C 8.582031 5 5.746094 7.941406 5.535156 11.648438 L 3.5 11.648438 L 6.777344 16.953125 L 10.050781 11.648438 L 7.71875 11.648438 C 7.921875 9.242188 9.785156 7.367188 12.058594 7.367188 C 12.898438 7.367188 13.695312 7.621094 14.359375 8.070312 L 15.484375 6.054688 C 14.488281 5.390625 13.3125 5 12.058594 5 Z M 17.222656 7.046875 L 13.949219 12.351562 L 16.28125 12.351562 C 16.078125 14.757812 14.214844 16.632812 11.941406 16.632812 C 11.101562 16.632812 10.304688 16.378906 9.640625 15.929688 L 8.515625 17.945312 C 9.511719 18.609375 10.6875 19 11.941406 19 C 15.417969 19 18.253906 16.058594 18.464844 12.351562 L 20.5 12.351562 Z "
     id="path6" />
</svg>

<svg xmlns="http://www.w3.org/2000/svg" viewBox="0 0 24 24">
 <path d="m 21.8 12 c 0 5.414 -4.387 9.801 -9.801 9.801 -5.414 0 -9.801 -4.387 -9.801 -9.801 0 -5.414 4.387 -9.801 9.801 -9.801 5.414 0 9.801 4.387 9.801 9.801 z" style="fill:#fff;stroke:#777;stroke-width:0.396"/>
 <path d="m 12.06 5 c -3.477 0 -6.312 2.941 -6.523 6.648 l -2.035 0 l 3.277 5.305 l 3.273 -5.305 l -2.332 0 c 0.203 -2.406 2.066 -4.281 4.34 -4.281 c 0.84 0 1.637 0.254 2.301 0.703 l 1.125 -2.02 c -0.996 -0.664 -2.172 -1.055 -3.426 -1.055 m 5.164 2.047 l -3.273 5.305 l 2.332 0 c -0.203 2.406 -2.066 4.281 -4.34 4.281 c -0.84 0 -1.637 -0.254 -2.301 -0.703 l -1.125 2.02 c 0.996 0.664 2.172 1.055 3.426 1.055 c 3.477 0 6.313 -2.941 6.523 -6.648 l 2.035 0 Z" style="fill:#dc322f;fill-opacity:1"/>
</svg>
